X: 399
P: Longways for as many as will
M: 6/8
L: 1/8
K: D
V: 1
|:\
|:\
e>fe e>dc | B>cd/e/ Tc>BA | dAF dAF | G>AG/F/ E2A, |\
e>fe e>dc | B>cd/e/ Td>cB | fdB ecA | B/c/dB d3 :|
V: 2 clef=bass middle=d
|:\
d3 D3 | f3 d3 | d'3 d3 | a3 A3 |\
d3 D3 | f3 d3 | d'3 d3 | a2A d3 :|
|:\
a3 A3 | a2^g a3 | f2g a2f | g2a d3 :|

